dist/images/icons/icon-instagram-custom.svg

<?xml version="1.0" encoding="UTF-8" standalone="no"?>
<svg width="24px" height="24px" viewBox="0 0 24 24" version="1.1" xmlns="http://www.w3.org/2000/svg" xmlns:xlink="http://www.w3.org/1999/xlink">
    <!-- Generator: Sketch 41.1 (35376) - http://www.bohemiancoding.com/sketch -->
    <title>Page 1</title>
    <desc>Created with Sketch.</desc>
    <defs></defs>
    <g id="Page-1" stroke="none" stroke-width="1" fill="none" fill-rule="evenodd">
        <g transform="translate(-160.000000, -2653.000000)" fill="#9A9A9A">
            <g id="Footer" transform="translate(0.000000, 2324.000000)">
                <g id="contact-info" transform="translate(23.000000, 40.000000)">
                    <g id="Social-media-Icons" transform="translate(69.000000, 289.000000)">
                        <g id="Page-1" transform="translate(68.000000, 0.000000)">
                            <path d="M14.4421875,11.9774503 C14.4421875,13.3201404 13.3734375,14.4008421 12.05625,14.4008421 C10.7390625,14.4008421 9.6703125,13.3201404 9.6703125,11.9774503 C9.6703125,10.6347602 10.7390625,9.55405848 12.05625,9.55405848 C13.3734375,9.55405848 14.4421875,10.6347602 14.4421875,11.9774503" id="Fill-1"></path>
                            <path d="M15.8765625,8.9645848 C15.4026563,8.9645848 15.01875,8.57487719 15.01875,8.09440936 C15.01875,7.61394152 15.4026563,7.22423392 15.8765625,7.22423392 C16.3504688,7.22423392 16.734375,7.61394152 16.734375,8.09440936 C16.734375,8.57487719 16.3504688,8.9645848 15.8765625,8.9645848 M12.05625,15.7107836 C10.0265625,15.7107836 8.38125,14.0406082 8.38125,11.9774503 C8.38125,9.9142924 10.021875,8.24411696 12.05625,8.24411696 C14.0859375,8.24411696 15.73125,9.9142924 15.73125,11.9774503 C15.73125,14.0406082 14.0859375,15.7107836 12.05625,15.7107836 M17.8875,9.03476023 C17.85,8.32364912 17.7375,7.94002339 17.6390625,7.68271345 C17.5078125,7.34587135 17.3484375,7.10259649 17.1,6.84996491 C16.8515625,6.59733333 16.6125,6.43826901 16.2796875,6.30727485 C16.0265625,6.20902924 15.6515625,6.08739181 14.953125,6.05932164 C14.19375,6.02189474 13.96875,6.01721637 12.05625,6.01721637 C10.14375,6.01721637 9.9140625,6.0265731 9.159375,6.05932164 C8.465625,6.08739181 8.0859375,6.20435088 7.8328125,6.30727485 C7.5,6.43826901 7.2609375,6.59733333 7.0125,6.84996491 C6.759375,7.10259649 6.6046875,7.34587135 6.4734375,7.68271345 C6.3703125,7.94002339 6.253125,8.32832749 6.225,9.03476023 C6.1875,9.8020117 6.1828125,10.0312515 6.1828125,11.9727719 C6.1828125,13.9142924 6.1875,14.1435322 6.225,14.9107836 C6.2625,15.6218947 6.375,16.0055205 6.4734375,16.2628304 C6.6046875,16.5996725 6.7640625,16.8429474 7.0125,17.0955789 C7.2609375,17.3482105 7.5,17.5072749 7.8328125,17.638269 C8.0859375,17.7365146 8.4609375,17.858152 9.159375,17.8862222 C9.91875,17.9236491 10.14375,17.9283275 12.05625,17.9283275 C13.96875,17.9283275 14.1984375,17.9236491 14.953125,17.8862222 C15.646875,17.858152 16.0265625,17.741193 16.2796875,17.638269 C16.6125,17.5072749 16.8515625,17.3482105 17.1,17.0955789 C17.353125,16.8429474 17.5078125,16.5996725 17.6390625,16.2628304 C17.7421875,16.0055205 17.859375,15.6172164 17.8875,14.9107836 C17.925,14.1435322 17.9296875,13.9142924 17.9296875,11.9727719 C17.9296875,10.0312515 17.925,9.8020117 17.8875,9.03476023" id="Fill-3"></path>
                            <path d="M19.1671875,14.9762807 C19.134375,15.7482105 19.0125,16.2815439 18.834375,16.7400234 C18.6515625,17.2218947 18.4078125,17.6242339 18.009375,18.0312515 C17.615625,18.438269 17.2171875,18.6862222 16.74375,18.8733567 C16.2890625,19.0511345 15.7640625,19.1727719 15.0046875,19.2101988 C14.2453125,19.2476257 13.996875,19.2569825 12.05625,19.2569825 C10.115625,19.2569825 9.871875,19.2476257 9.1078125,19.2101988 C8.3484375,19.1774503 7.8234375,19.0558129 7.36875,18.8733567 C6.9,18.6862222 6.5015625,18.438269 6.103125,18.0312515 C5.7046875,17.6242339 5.4609375,17.2172164 5.278125,16.7400234 C5.1046875,16.2768655 4.9828125,15.7482105 4.9453125,14.9762807 C4.9125,14.2043509 4.903125,13.9563977 4.903125,11.9821287 C4.903125,10.0078596 4.9078125,9.75990643 4.9453125,8.98797661 C4.978125,8.21604678 5.1,7.68271345 5.278125,7.22423392 C5.4609375,6.74236257 5.7046875,6.34002339 6.103125,5.93300585 C6.496875,5.5259883 6.8953125,5.27803509 7.36875,5.09090058 C7.8234375,4.91312281 8.3484375,4.79148538 9.1078125,4.75405848 C9.8671875,4.71663158 10.1109375,4.70727485 12.05625,4.70727485 C13.996875,4.70727485 14.2453125,4.71663158 15.0046875,4.75405848 C15.7640625,4.78680702 16.2890625,4.90844444 16.74375,5.09090058 C17.2125,5.27803509 17.6109375,5.5259883 18.009375,5.93300585 C18.4078125,6.34002339 18.6515625,6.74704094 18.834375,7.22423392 C19.0078125,7.68739181 19.1296875,8.21604678 19.1671875,8.98797661 C19.2,9.75990643 19.209375,10.0078596 19.209375,11.9821287 C19.209375,13.9563977 19.2046875,14.2043509 19.1671875,14.9762807 M12.628125,0.014877193 C6.0375,-0.31728655 0.1828125,4.95990643 0,11.6733567 L0,12.3189708 C0.16875,18.5131228 5.165625,23.4862222 11.1140625,23.9540585 L12.9421875,23.9540585 C18.9234375,23.4815439 23.8359375,18.4663392 24,12.309614 L24,11.6733567 C23.8359375,5.40902924 18.7546875,0.328327485 12.628125,0.014877193" id="Fill-5"></path>
                        </g>
                    </g>
                </g>
            </g>
        </g>
    </g>
</svg>

<svg width="24" height="24" viewBox="0 0 24 24" xmlns="http://www.w3.org/2000/svg"><title>Page 1</title><g transform="translate(-160 -2653)" fill="#9A9A9A" id="Page-1" fill-rule="evenodd"><g id="Footer" transform="translate(0 2324)"><g id="contact-info" transform="translate(23 40)"><g id="Social-media-Icons" transform="translate(69 289)"><g id="Page-1" transform="translate(68)"><path d="M14.442 11.977c0 1.343-1.069 2.424-2.386 2.424-1.317 0-2.386-1.08-2.386-2.424 0-1.342 1.07-2.423 2.386-2.423 1.317 0 2.386 1.08 2.386 2.423" id="Fill-1"/><path d="M15.877 8.965a.864.864 0 0 1-.858-.87c0-.481.384-.87.858-.87.473 0 .857.389.857.87 0 .48-.384.87-.857.87m-3.82 6.746c-2.03 0-3.676-1.67-3.676-3.734 0-2.063 1.64-3.733 3.675-3.733 2.03 0 3.675 1.67 3.675 3.733 0 2.064-1.645 3.734-3.675 3.734m5.832-6.676c-.038-.711-.15-1.095-.249-1.352a2.303 2.303 0 0 0-.539-.833 2.207 2.207 0 0 0-.82-.543c-.253-.098-.628-.22-1.327-.248-.76-.037-.984-.042-2.897-.042-1.912 0-2.142.01-2.897.042-.693.028-1.073.145-1.326.248-.333.131-.572.29-.82.543a2.243 2.243 0 0 0-.54.833c-.103.257-.22.645-.248 1.352-.037.767-.042.996-.042 2.938 0 1.941.005 2.17.042 2.938.038.71.15 1.095.248 1.352.132.337.291.58.54.833.248.252.487.411.82.542.253.099.628.22 1.326.248.76.038.985.042 2.897.042 1.913 0 2.142-.004 2.897-.042.694-.028 1.074-.145 1.327-.248.332-.13.572-.29.82-.542.253-.253.408-.496.54-.833.102-.257.22-.646.247-1.352.038-.767.043-.997.043-2.938 0-1.942-.005-2.171-.043-2.938" id="Fill-3"/><path d="M19.167 14.976c-.033.772-.155 1.306-.333 1.764a3.565 3.565 0 0 1-.825 1.291 3.43 3.43 0 0 1-1.265.842c-.455.178-.98.3-1.74.337-.759.038-1.007.047-2.948.047-1.94 0-2.184-.01-2.948-.047-.76-.033-1.285-.154-1.74-.337a3.508 3.508 0 0 1-1.265-.842 3.604 3.604 0 0 1-.825-1.291c-.173-.463-.295-.992-.333-1.764-.033-.772-.042-1.02-.042-2.994 0-1.974.005-2.222.042-2.994.033-.772.155-1.305.333-1.764.183-.482.427-.884.825-1.291a3.43 3.43 0 0 1 1.266-.842c.454-.178.98-.3 1.739-.337.76-.037 1.003-.047 2.948-.047 1.94 0 2.19.01 2.949.047.76.033 1.284.154 1.739.337.468.187.867.435 1.265.842.399.407.643.814.825 1.291.174.463.296.992.333 1.764.033.772.042 1.02.042 2.994 0 1.974-.004 2.222-.042 2.994M12.628.015C6.038-.317.183 4.96 0 11.673v.646c.169 6.194 5.166 11.167 11.114 11.635h1.828C18.923 23.482 23.836 18.466 24 12.31v-.637C23.836 5.41 18.755.328 12.628.015" id="Fill-5"/></g></g></g></g></g></svg>
